static/assets/head_icons_png/woman/yanjing/1038187.svg

<svg xmlns="http://www.w3.org/2000/svg" width="21" height="5"><g transform="translate(-59.9 -30.05)"><path d="M71.15 30.6l-.1-.05-.9-.05h-.2v-.1h.85l.4.1.35.15.15.15-.05.15-.5-.35" fill="#f0f1f5"/><path d="M69.95 30.5h.2l.9.05.1.05.5.35v.1q-.2-.25-.55-.35l-.65-.1h-.5v-.1" fill="#8e9486"/><path d="M71.65 31.1h-.05v.05l-.05.2-.25-.4-.25-.1-.3-.05h-.8v-.2h.5l.65.1q.35.1.55.35v.05" fill="#595c53"/><path d="M71.65 30.95l.05-.15h.05l.1-.15q.3-.4 1.15-.5l2.85-.1 2.75.3q.8.25.95.7l.15.55.05.2v.6l-.05.2V32l-.05-.3-.15-.5-.6-.6-2.75-.35-3.2.1q-.9.15-1.25.65h-.05v.05-.1" fill="#8a9199"/><path d="M72.35 30.7v.05h-.1l-.3.2-.2.5v.5l.1.4.05.2.2.55.65.75 1.2.4 1.25.1h1l2-.2q.95-.2 1.2-.95l.15-.6v-.65l-.05-.15-.35-.7.05.1.1.2.05.35v.75l-.1.25-.05.1.05-1v-.35l-.45-.65-.05-.05h-.05l-.2-.1-2.65-.25-2.75.1-.7.15h-.05m7.3 2.25l-.1.4-.15.3-.4.4-1.65.35-1.35.1h-1.15q-1.65-.1-2.3-.7-.95-.8-1-1.8v-.65l.05-.2v-.05h.05V31h.05q.35-.5 1.25-.65l3.2-.1 2.75.35.6.6.15.5.05.3V32.6l-.05.35" fill="#363638"/><path d="M79.35 32.35v.05-.65l-.05-.35-.1-.2-.05-.1.35.7.05.15v.1h-.05l-.05.35-.1-.05m-7.45-1l.05-.1v-.05l-.1.3-.05.3.05.55-.1-.4v-.5l.2-.5.3-.2h.1l-.1.05h-.05l-.1.1-.15.45v.2l-.05-.2" fill="#586063"/><path d="M76 34.2h-.45l-1.4-.1q-1.05-.1-1.5-.55l-.6-.9-.15-.65V31.35l.05.2v.3l.05.3.35.75.75.8 1.35.3 1.55.05 1-.05.85-.1.8-.3q.45-.3.6-1.75l-.05 1 .05-.1.1-.25V32.35l.1.05-.1.35-.25.55-.55.55-1.25.3-1.3.05m-3.65-3.45v-.05h.05l-.05.05" fill="#848d8a"/><path d="M80.7 31.65l.05.15-.55-.05-.45.05-.05-.2 1 .05" fill="#f4fcf1"/><path d="M80.15 31.9h.6l-.05.2h-.1v.25l-.1.05h-.2l-.1-.25-.15-.05-.3.05v-.2l.4-.05" fill="#57604f"/><path d="M79.75 32.4v-.25l.3-.05.15.05.1.25h-.55" fill="#a0aa8f"/><path d="M80.75 31.9h-.6l-.4.05v-.15l.45-.05.55.05v.1" fill="#a7afa0"/><linearGradient id="a" gradientUnits="userSpaceOnUse" gradientTransform="matrix(-.00162 .00302 -.0012 -.00064 77.55 32.95)" x1="-819.2" x2="819.2"><stop offset="0" stop-color="#95a0a6"/><stop offset=".471" stop-color="#f2fdff"/><stop offset="1" stop-color="#7d878c"/></linearGradient><path d="M76 34.2l1.3-.05 1.25-.3.55-.55.25-.55.1-.35.05-.35h.05v-.1.65l-.15.6q-.25.75-1.2.95l-2 .2-.2-.15" fill="url(#a)"/><linearGradient id="b" gradientUnits="userSpaceOnUse" gradientTransform="matrix(.00337 .00108 -.00058 .00179 74.1 32.75)" x1="-819.2" x2="819.2"><stop offset="0" stop-color="#7d878c"/><stop offset=".322" stop-color="#f2fdff"/><stop offset="1" stop-color="#95a0a6"/></linearGradient><path d="M76.2 34.35h-1l-1.25-.1-1.2-.4-.65-.75-.2-.55-.05-.2-.05-.55.05-.3.1-.3v.05l-.05.1V32l.15.65.6.9q.45.45 1.5.55l1.4.1H76l.2.15" fill="url(#b)"/><radialGradient id="c" gradientUnits="userSpaceOnUse" gradientTransform="matrix(.00673 0 0 .00673 75.8 30.25)" spreadMethod="pad" cx="0" cy="0" r="819.2" fx="0" fy="0"><stop offset="0" stop-color="#eaf5f7"/><stop offset="1" stop-color="#95a0a6"/></radialGradient><path d="M72.8 30.35l2.5-.15 2.45.1 1 .3q.45.2.05.1l-1.15-.2-2.15-.15h-1.4l-1.25.1q-.6.1-.05-.1" fill="url(#c)"/><path d="M70.7 30.4h-.85l-.4.1-.35.15-.15.15.05.15q.2-.3.5-.35l.1-.05.9-.05h.2v-.1" fill="#f0f1f5"/><path d="M70.7 30.5h-.2l-.9.05-.1.05q-.3.05-.5.35v.1l.55-.35.65-.1h.5v-.1" fill="#8e9486"/><path d="M69 31.1h.05v.05l.05.2.25-.4.25-.1.3-.05h.8v-.2h-.5l-.65.1-.55.35v.05" fill="#595c53"/><path d="M69 30.95l-.05-.15h-.05l-.1-.15q-.3-.4-1.15-.5l-2.85-.1-2.75.3q-.8.25-.95.7l-.15.55-.05.2v.6l.05.2V32l.05-.3.15-.5.6-.6 2.75-.35 3.2.1q.9.15 1.25.65H69v.05-.1" fill="#8a9199"/><path d="M61 32.95l.1.4.15.3.4.4 1.65.35 1.35.1h1.15q1.65-.1 2.3-.7.95-.8 1-1.8v-.65l-.05-.2v-.05H69V31h-.05q-.35-.5-1.25-.65l-3.2-.1-2.75.35-.6.6-.15.5-.05.3V32.6l.05.35m7.3-2.25v.05h.1l.3.2.2.5v.5l-.1.4-.05.2-.2.55-.65.75-1.2.4-1.25.1h-1l-2-.2q-.95-.2-1.2-.95l-.15-.6v-.65l.05-.15.35-.7-.05.1-.1.2-.05.35v.75l.1.25.05.1q-.1-.4-.05-1v-.35q.15-.4.45-.65l.05-.05h.05l.2-.1 2.65-.25 2.75.1.7.15h.05" fill="#363638"/><path d="M61.3 32.35v.05-.65l.05-.35.1-.2.05-.1-.35.7-.05.15v.1h.05l.05.35q.05-.15.1-.05m7.45-1l-.05-.1v-.05l.1.3.05.3-.05.55.1-.4v-.5l-.2-.5-.3-.2h-.1l.1.05h.05l.1.1.15.45v.2l.05-.2" fill="#586063"/><path d="M64.65 34.2h.45l1.4-.1q1.05-.1 1.5-.55l.6-.9.15-.65V31.35l-.05.2v.3l-.05.3-.35.75-.75.8-1.35.3-1.55.05-1-.05-.85-.1-.8-.3q-.45-.3-.6-1.75-.05.6.05 1l-.05-.1-.1-.25V32.35q-.05-.1-.1.05l.1.35.25.55.55.55 1.25.3 1.3.05m3.65-3.45v-.05h-.05l.05.05" fill="#848d8a"/><path d="M59.95 31.65l-.05.15.55-.05.45.05.05-.2-1 .05" fill="#f4fcf1"/><path d="M60.5 31.9h-.6l.05.2h.1v.25l.1.05h.2l.1-.25.15-.05.3.05v-.2l-.4-.05" fill="#57604f"/><path d="M60.9 32.4v-.25l-.3-.05-.15.05-.1.25h.55" fill="#a0aa8f"/><path d="M59.9 31.9h.6l.4.05v-.15l-.45-.05-.55.05v.1" fill="#a7afa0"/><linearGradient id="d" gradientUnits="userSpaceOnUse" gradientTransform="matrix(.00162 .00302 .0012 -.00064 63.1 32.95)" x1="-819.2" x2="819.2"><stop offset="0" stop-color="#95a0a6"/><stop offset=".471" stop-color="#f2fdff"/><stop offset="1" stop-color="#7d878c"/></linearGradient><path d="M64.65 34.2l-1.3-.05-1.25-.3-.55-.55-.25-.55-.1-.35-.05-.35h-.05v-.1.65l.15.6q.25.75 1.2.95l2 .2.2-.15" fill="url(#d)"/><linearGradient id="e" gradientUnits="userSpaceOnUse" gradientTransform="matrix(-.00337 .00108 .00058 .00179 66.55 32.75)" x1="-819.2" x2="819.2"><stop offset="0" stop-color="#7d878c"/><stop offset=".322" stop-color="#f2fdff"/><stop offset="1" stop-color="#95a0a6"/></linearGradient><path d="M64.45 34.35h1l1.25-.1 1.2-.4.65-.75.2-.55.05-.2.05-.55-.05-.3-.1-.3v.05l.05.1V32l-.15.65-.6.9q-.45.45-1.5.55l-1.4.1h-.45l-.2.15" fill="url(#e)"/><radialGradient id="f" gradientUnits="userSpaceOnUse" gradientTransform="matrix(-.00673 0 0 .00673 64.85 30.25)" spreadMethod="pad" cx="0" cy="0" r="819.2" fx="0" fy="0"><stop offset="0" stop-color="#eaf5f7"/><stop offset="1" stop-color="#95a0a6"/></radialGradient><path d="M67.85 30.35l-2.5-.15-2.45.1-1 .3q-.45.2-.05.1l1.15-.2 2.15-.15h1.4l1.25.1q.6.1.05-.1" fill="url(#f)"/><radialGradient id="g" gradientUnits="userSpaceOnUse" gradientTransform="matrix(.00734 0 0 .00734 79.45 28.7)" spreadMethod="pad" cx="0" cy="0" r="819.2" fx="0" fy="0"><stop offset="0" stop-color="#fff"/><stop offset="1" stop-color="#fff" stop-opacity="0"/></radialGradient><path d="M77.45 32.85l-2.8-1.05-.25-1.1 2.45-.2 1.7.25q.6.3.55 1.05l-.1 1.25q-.1.55-.45.35l-1.1-.55" fill="url(#g)"/><radialGradient id="h" gradientUnits="userSpaceOnUse" gradientTransform="matrix(-.00734 0 0 .00734 61.25 28.7)" spreadMethod="pad" cx="0" cy="0" r="819.2" fx="0" fy="0"><stop offset="0" stop-color="#fff"/><stop offset="1" stop-color="#fff" stop-opacity="0"/></radialGradient><path d="M63.25 32.85l2.8-1.05.25-1.1-2.45-.2-1.7.25q-.6.3-.55 1.05l.1 1.25q.1.55.45.35l1.1-.55" fill="url(#h)"/></g></svg>

<?xml version="1.0" encoding="utf-8"?>
<svg version="1.1" id="Layer_1"
xmlns="http://www.w3.org/2000/svg"
xmlns:xlink="http://www.w3.org/1999/xlink"
xmlns:author="http://www.sothink.com"
width="21px" height="5px"
xml:space="preserve">
<g id="635" transform="matrix(1, 0, 0, 1, -59.9, -30.05)">
<path style="fill:#F0F1F5;fill-opacity:1" d="M71.15,30.6L71.05 30.55L70.15 30.5L69.95 30.5L69.95 30.4L70.8 30.4L71.2 30.5L71.55 30.65L71.7 30.8L71.65 30.95L71.15 30.6" />
<path style="fill:#8E9486;fill-opacity:1" d="M69.95,30.5L70.15 30.5L71.05 30.55L71.15 30.6L71.65 30.95L71.65 31.05Q71.45 30.8 71.1 30.7L70.45 30.6L69.95 30.6L69.95 30.5" />
<path style="fill:#595C53;fill-opacity:1" d="M71.65,31.1L71.6 31.1L71.6 31.15L71.55 31.35L71.3 30.95L71.05 30.85L70.75 30.8L69.95 30.8L69.95 30.6L70.45 30.6L71.1 30.7Q71.45 30.8 71.65 31.05L71.65 31.1" />
<path style="fill:#8A9199;fill-opacity:1" d="M71.65,30.95L71.7 30.8L71.75 30.8L71.85 30.65Q72.15 30.25 73 30.15L75.85 30.05L78.6 30.35Q79.4 30.6 79.55 31.05L79.7 31.6L79.75 31.8L79.75 31.95L79.75 32.15L79.75 32.4L79.7 32.6L79.7 32.4L79.7 32.15L79.7 32L79.65 31.7L79.5 31.2L78.9 30.6L76.15 30.25L72.95 30.35Q72.05 30.5 71.7 31L71.65 31L71.65 31.05L71.65 30.95" />
<path style="fill:#363638;fill-opacity:1" d="M72.35,30.7L72.35 30.75L72.25 30.75L71.95 30.95L71.75 31.45L71.75 31.6L71.75 31.7L71.75 31.95L71.85 32.35L71.9 32.55L72.1 33.1L72.75 33.85L73.95 34.25L75.2 34.35L76.2 34.35L78.2 34.15Q79.15 33.95 79.4 33.2L79.55 32.6L79.55 32.55L79.55 32.45L79.55 32.4L79.55 31.95L79.5 31.8L79.15 31.1L79.2 31.2L79.3 31.4L79.35 31.75L79.35 32.15L79.35 32.25L79.35 32.4L79.35 32.5L79.25 32.75L79.2 32.85L79.25 31.85L79.25 31.5L78.8 30.85L78.75 30.8L78.7 30.8L78.5 30.7L75.85 30.45L73.1 30.55L72.4 30.7L72.35 30.7M79.65,32.95L79.55 33.35L79.4 33.65L79 34.05L77.35 34.4L76 34.5L75.8 34.5L74.85 34.5Q73.2 34.4 72.55 33.8Q71.6 33 71.55 32L71.55 31.4L71.55 31.35L71.6 31.15L71.6 31.1L71.65 31.1L71.65 31.05L71.65 31L71.7 31Q72.05 30.5 72.95 30.35L76.15 30.25L78.9 30.6L79.5 31.2L79.65 31.7L79.7 32L79.7 32.15L79.7 32.4L79.7 32.6L79.65 32.95" />
<path style="fill:#586063;fill-opacity:1" d="M79.35,32.35L79.35 32.4L79.35 32.25L79.35 32.15L79.35 31.75L79.3 31.4L79.2 31.2L79.15 31.1L79.5 31.8L79.55 31.95L79.55 32.05L79.5 32.05L79.45 32.4L79.35 32.35M71.9,31.35L71.95 31.25L71.95 31.2L71.85 31.5L71.8 31.8L71.85 32.35L71.75 31.95L71.75 31.7L71.75 31.6L71.75 31.45L71.95 30.95L72.25 30.75L72.35 30.75L72.25 30.8L72.2 30.8L72.1 30.9L71.95 31.35L71.95 31.4L71.95 31.55L71.9 31.35" />
<path style="fill:#848D8A;fill-opacity:1" d="M76,34.2L75.55 34.2L74.15 34.1Q73.1 34 72.65 33.55L72.05 32.65L71.9 32L71.9 31.85L71.9 31.55L71.9 31.45L71.9 31.35L71.95 31.55L71.95 31.85L72 32.15L72.35 32.9L73.1 33.7L74.45 34L76 34.05L77 34L77.85 33.9L78.65 33.6Q79.1 33.3 79.25 31.85L79.2 32.85L79.25 32.75L79.35 32.5L79.35 32.4L79.35 32.35L79.45 32.4L79.35 32.75L79.1 33.3L78.55 33.85L77.3 34.15L76 34.2M72.35,30.75L72.35 30.7L72.4 30.7L72.35 30.75" />
<path style="fill:#F4FCF1;fill-opacity:1" d="M80.7,31.65L80.75 31.8L80.2 31.75L79.75 31.8L79.7 31.6L80.7 31.65" />
<path style="fill:#57604F;fill-opacity:1" d="M80.15,31.9L80.4 31.9L80.75 31.9L80.7 32.1L80.6 32.1L80.6 32.35L80.5 32.4L80.3 32.4L80.2 32.15L80.05 32.1L79.75 32.15L79.75 31.95L80.15 31.9" />
<path style="fill:#A0AA8F;fill-opacity:1" d="M79.75,32.4L79.75 32.15L80.05 32.1L80.2 32.15L80.3 32.4L79.75 32.4" />
<path style="fill:#A7AFA0;fill-opacity:1" d="M80.75,31.9L80.4 31.9L80.15 31.9L79.75 31.95L79.75 31.8L80.2 31.75L80.75 31.8L80.75 31.9" />
<linearGradient
id="LinearGradID_5095" gradientUnits="userSpaceOnUse" gradientTransform="matrix(-0.00161743, 0.00302124, -0.00120544, -0.000640869, 77.55, 32.95)" spreadMethod ="pad" x1="-819.2" y1="0" x2="819.2" y2="0" >
<stop  offset="0" style="stop-color:#95A0A6;stop-opacity:1" />
<stop  offset="0.470588" style="stop-color:#F2FDFF;stop-opacity:1" />
<stop  offset="1" style="stop-color:#7D878C;stop-opacity:1" />
</linearGradient>
<path style="fill:url(#LinearGradID_5095) " d="M76,34.2L77.3 34.15L78.55 33.85L79.1 33.3L79.35 32.75L79.45 32.4L79.5 32.05L79.55 32.05L79.55 31.95L79.55 32.4L79.55 32.45L79.55 32.55L79.55 32.6L79.4 33.2Q79.15 33.95 78.2 34.15L76.2 34.35L76 34.2" />
<linearGradient
id="LinearGradID_5096" gradientUnits="userSpaceOnUse" gradientTransform="matrix(0.00337219, 0.00108337, -0.000579834, 0.00178528, 74.1, 32.75)" spreadMethod ="pad" x1="-819.2" y1="0" x2="819.2" y2="0" >
<stop  offset="0" style="stop-color:#7D878C;stop-opacity:1" />
<stop  offset="0.321569" style="stop-color:#F2FDFF;stop-opacity:1" />
<stop  offset="1" style="stop-color:#95A0A6;stop-opacity:1" />
</linearGradient>
<path style="fill:url(#LinearGradID_5096) " d="M76.2,34.35L75.2 34.35L73.95 34.25L72.75 33.85L72.1 33.1L71.9 32.55L71.85 32.35L71.8 31.8L71.85 31.5L71.95 31.2L71.95 31.25L71.9 31.35L71.9 31.45L71.9 31.55L71.9 31.85L71.9 32L72.05 32.65L72.65 33.55Q73.1 34 74.15 34.1L75.55 34.2L76 34.2L76.2 34.35" />
<radialGradient
id="RadialGradID_5097" gradientUnits="userSpaceOnUse" gradientTransform="matrix(0.00672913, 0, 0, 0.00672913, 75.8, 30.25)" spreadMethod ="pad" cx="0" cy="0" r="819.2" fx="0" fy="0" >
<stop  offset="0"  style="stop-color:#EAF5F7;stop-opacity:1" />
<stop  offset="1"  style="stop-color:#95A0A6;stop-opacity:1" />
</radialGradient>
<path style="fill:url(#RadialGradID_5097) " d="M72.8,30.35L75.3 30.2L77.75 30.3L78.75 30.6Q79.2 30.8 78.8 30.7L77.65 30.5L75.5 30.35L74.1 30.35L72.85 30.45Q72.25 30.55 72.8 30.35" />
<path style="fill:#F0F1F5;fill-opacity:1" d="M70.7,30.4L69.85 30.4L69.45 30.5L69.1 30.65L68.95 30.8L69 30.95Q69.2 30.65 69.5 30.6L69.6 30.55L70.5 30.5L70.7 30.5L70.7 30.4" />
<path style="fill:#8E9486;fill-opacity:1" d="M70.7,30.5L70.5 30.5L69.6 30.55L69.5 30.6Q69.2 30.65 69 30.95L69 31.05L69.55 30.7L70.2 30.6L70.7 30.6L70.7 30.5" />
<path style="fill:#595C53;fill-opacity:1" d="M69,31.1L69.05 31.1L69.05 31.15L69.1 31.35L69.35 30.95L69.6 30.85L69.9 30.8L70.7 30.8L70.7 30.6L70.2 30.6L69.55 30.7L69 31.05L69 31.1" />
<path style="fill:#8A9199;fill-opacity:1" d="M69,30.95L68.95 30.8L68.9 30.8L68.8 30.65Q68.5 30.25 67.65 30.15L64.8 30.05L62.05 30.35Q61.25 30.6 61.1 31.05L60.95 31.6L60.9 31.8L60.9 31.95L60.9 32.15L60.9 32.4L60.95 32.6L60.95 32.4L60.95 32.15L60.95 32L61 31.7L61.15 31.2L61.75 30.6L64.5 30.25L67.7 30.35Q68.6 30.5 68.95 31L69 31L69 31.05L69 30.95" />
<path style="fill:#363638;fill-opacity:1" d="M61,32.95L61.1 33.35L61.25 33.65L61.65 34.05L63.3 34.4L64.65 34.5L64.85 34.5L65.8 34.5Q67.45 34.4 68.1 33.8Q69.05 33 69.1 32L69.1 31.4L69.1 31.35L69.05 31.15L69.05 31.1L69 31.1L69 31.05L69 31L68.95 31Q68.6 30.5 67.7 30.35L64.5 30.25L61.75 30.6L61.15 31.2L61 31.7L60.95 32L60.95 32.15L60.95 32.4L60.95 32.6L61 32.95M68.3,30.7L68.3 30.75L68.4 30.75L68.7 30.95L68.9 31.45L68.9 31.6L68.9 31.7L68.9 31.95L68.8 32.35L68.75 32.55L68.55 33.1L67.9 33.85L66.7 34.25L65.45 34.35L64.45 34.35L62.45 34.15Q61.5 33.95 61.25 33.2L61.1 32.6L61.1 32.55L61.1 32.45L61.1 32.4L61.1 31.95L61.15 31.8L61.5 31.1L61.45 31.2L61.35 31.4L61.3 31.75L61.3 32.15L61.3 32.25L61.3 32.4L61.3 32.5L61.4 32.75L61.45 32.85Q61.35 32.45 61.4 31.85L61.4 31.5Q61.55 31.1 61.85 30.85L61.9 30.8L61.95 30.8L62.15 30.7L64.8 30.45L67.55 30.55L68.25 30.7L68.3 30.7" />
<path style="fill:#586063;fill-opacity:1" d="M61.3,32.35L61.3 32.4L61.3 32.25L61.3 32.15L61.3 31.75L61.35 31.4L61.45 31.2L61.5 31.1L61.15 31.8L61.1 31.95L61.1 32.05L61.15 32.05L61.2 32.4Q61.25 32.25 61.3 32.35M68.75,31.35L68.7 31.25L68.7 31.2L68.8 31.5L68.85 31.8L68.8 32.35L68.9 31.95L68.9 31.7L68.9 31.6L68.9 31.45L68.7 30.95L68.4 30.75L68.3 30.75L68.4 30.8L68.45 30.8L68.55 30.9L68.7 31.35L68.7 31.4L68.7 31.55L68.75 31.35" />
<path style="fill:#848D8A;fill-opacity:1" d="M64.65,34.2L65.1 34.2L66.5 34.1Q67.55 34 68 33.55L68.6 32.65L68.75 32L68.75 31.85L68.75 31.55L68.75 31.45L68.75 31.35L68.7 31.55L68.7 31.85L68.65 32.15L68.3 32.9L67.55 33.7L66.2 34L64.65 34.05L63.65 34L62.8 33.9L62 33.6Q61.55 33.3 61.4 31.85Q61.35 32.45 61.45 32.85L61.4 32.75L61.3 32.5L61.3 32.4L61.3 32.35Q61.25 32.25 61.2 32.4L61.3 32.75L61.55 33.3L62.1 33.85L63.35 34.15L64.65 34.2M68.3,30.75L68.3 30.7L68.25 30.7L68.3 30.75" />
<path style="fill:#F4FCF1;fill-opacity:1" d="M59.95,31.65L59.9 31.8L60.45 31.75L60.9 31.8L60.95 31.6L59.95 31.65" />
<path style="fill:#57604F;fill-opacity:1" d="M60.5,31.9L60.25 31.9L59.9 31.9L59.95 32.1L60.05 32.1L60.05 32.35L60.15 32.4L60.35 32.4L60.45 32.15L60.6 32.1L60.9 32.15L60.9 31.95L60.5 31.9" />
<path style="fill:#A0AA8F;fill-opacity:1" d="M60.9,32.4L60.9 32.15L60.6 32.1L60.45 32.15L60.35 32.4L60.9 32.4" />
<path style="fill:#A7AFA0;fill-opacity:1" d="M59.9,31.9L60.25 31.9L60.5 31.9L60.9 31.95L60.9 31.8L60.45 31.75L59.9 31.8L59.9 31.9" />
<linearGradient
id="LinearGradID_5098" gradientUnits="userSpaceOnUse" gradientTransform="matrix(0.00161743, 0.00302124, 0.00120544, -0.000640869, 63.1, 32.95)" spreadMethod ="pad" x1="-819.2" y1="0" x2="819.2" y2="0" >
<stop  offset="0" style="stop-color:#95A0A6;stop-opacity:1" />
<stop  offset="0.470588" style="stop-color:#F2FDFF;stop-opacity:1" />
<stop  offset="1" style="stop-color:#7D878C;stop-opacity:1" />
</linearGradient>
<path style="fill:url(#LinearGradID_5098) " d="M64.65,34.2L63.35 34.15L62.1 33.85L61.55 33.3L61.3 32.75L61.2 32.4L61.15 32.05L61.1 32.05L61.1 31.95L61.1 32.4L61.1 32.45L61.1 32.55L61.1 32.6L61.25 33.2Q61.5 33.95 62.45 34.15L64.45 34.35L64.65 34.2" />
<linearGradient
id="LinearGradID_5099" gradientUnits="userSpaceOnUse" gradientTransform="matrix(-0.00337219, 0.00108337, 0.000579834, 0.00178528, 66.55, 32.75)" spreadMethod ="pad" x1="-819.2" y1="0" x2="819.2" y2="0" >
<stop  offset="0" style="stop-color:#7D878C;stop-opacity:1" />
<stop  offset="0.321569" style="stop-color:#F2FDFF;stop-opacity:1" />
<stop  offset="1" style="stop-color:#95A0A6;stop-opacity:1" />
</linearGradient>
<path style="fill:url(#LinearGradID_5099) " d="M64.45,34.35L65.45 34.35L66.7 34.25L67.9 33.85L68.55 33.1L68.75 32.55L68.8 32.35L68.85 31.8L68.8 31.5L68.7 31.2L68.7 31.25L68.75 31.35L68.75 31.45L68.75 31.55L68.75 31.85L68.75 32L68.6 32.65L68 33.55Q67.55 34 66.5 34.1L65.1 34.2L64.65 34.2L64.45 34.35" />
<radialGradient
id="RadialGradID_5100" gradientUnits="userSpaceOnUse" gradientTransform="matrix(-0.00672913, 0, 0, 0.00672913, 64.85, 30.25)" spreadMethod ="pad" cx="0" cy="0" r="819.2" fx="0" fy="0" >
<stop  offset="0"  style="stop-color:#EAF5F7;stop-opacity:1" />
<stop  offset="1"  style="stop-color:#95A0A6;stop-opacity:1" />
</radialGradient>
<path style="fill:url(#RadialGradID_5100) " d="M67.85,30.35L65.35 30.2L62.9 30.3L61.9 30.6Q61.45 30.8 61.85 30.7L63 30.5L65.15 30.35L66.55 30.35L67.8 30.45Q68.4 30.55 67.85 30.35" />
<radialGradient
id="RadialGradID_5101" gradientUnits="userSpaceOnUse" gradientTransform="matrix(0.00733948, 0, 0, 0.00733948, 79.45, 28.7)" spreadMethod ="pad" cx="0" cy="0" r="819.2" fx="0" fy="0" >
<stop  offset="0"  style="stop-color:#FFFFFF;stop-opacity:1" />
<stop  offset="1"  style="stop-color:#FFFFFF;stop-opacity:0" />
</radialGradient>
<path style="fill:url(#RadialGradID_5101) " d="M77.45,32.85L74.65 31.8L74.4 30.7L76.85 30.5L78.55 30.75Q79.15 31.05 79.1 31.8L79 33.05Q78.9 33.6 78.55 33.4L77.45 32.85" />
<radialGradient
id="RadialGradID_5102" gradientUnits="userSpaceOnUse" gradientTransform="matrix(-0.00733948, 0, 0, 0.00733948, 61.25, 28.7)" spreadMethod ="pad" cx="0" cy="0" r="819.2" fx="0" fy="0" >
<stop  offset="0"  style="stop-color:#FFFFFF;stop-opacity:1" />
<stop  offset="1"  style="stop-color:#FFFFFF;stop-opacity:0" />
</radialGradient>
<path style="fill:url(#RadialGradID_5102) " d="M63.25,32.85L66.05 31.8L66.3 30.7L63.85 30.5L62.15 30.75Q61.55 31.05 61.6 31.8L61.7 33.05Q61.8 33.6 62.15 33.4L63.25 32.85" />
</g>
</svg>
